ix/arrow-right_bulk.svg

<svg viewBox="0 0 24 24" fill="none" xmlns="http://www.w3.org/2000/svg" height="1em" width="1em">
  <path opacity="0.4" d="M12 22C17.5228 22 22 17.5228 22 12C22 6.47715 17.5228 2 12 2C6.47715 2 2 6.47715 2 12C2 17.5228 6.47715 22 12 22Z" fill="#292D32"/>
  <path d="M16.03 11.4699L13.03 8.46994C12.74 8.17994 12.26 8.17994 11.97 8.46994C11.68 8.75994 11.68 9.23994 11.97 9.52994L13.69 11.2499H8.5C8.09 11.2499 7.75 11.5899 7.75 11.9999C7.75 12.4099 8.09 12.7499 8.5 12.7499H13.69L11.97 14.4699C11.68 14.7599 11.68 15.2399 11.97 15.5299C12.12 15.6799 12.31 15.7499 12.5 15.7499C12.69 15.7499 12.88 15.6799 13.03 15.5299L16.03 12.5299C16.32 12.2399 16.32 11.7599 16.03 11.4699Z" fill="#292D32"/>
</svg>

<svg viewBox="0 0 24 24" fill="none" xmlns="http://www.w3.org/2000/svg" height="1em" width="1em">
  <path opacity=".4" d="M12 22c5.523 0 10-4.477 10-10S17.523 2 12 2 2 6.477 2 12s4.477 10 10 10Z" fill="#292D32"/>
  <path d="m16.03 11.47-3-3a.754.754 0 0 0-1.06 0c-.29.29-.29.77 0 1.06l1.72 1.72H8.5c-.41 0-.75.34-.75.75s.34.75.75.75h5.19l-1.72 1.72c-.29.29-.29.77 0 1.06.15.15.34.22.53.22s.38-.07.53-.22l3-3c.29-.29.29-.77 0-1.06Z" fill="#292D32"/>
</svg>
